src/lib/assets/coinbase.svg

<svg xmlns="http://www.w3.org/2000/svg" width="1024" height="1024" fill="none"><path fill="#0052FF" d="M0 0h1024v1024H0z"/><path fill="#fff" fill-rule="evenodd" d="M152 512c0 198.823 161.177 360 360 360s360-161.177 360-360-161.177-360-360-360-360 161.177-360 360m268-116c-13.255 0-24 10.745-24 24v184c0 13.255 10.745 24 24 24h184c13.255 0 24-10.745 24-24V420c0-13.255-10.745-24-24-24z" clip-rule="evenodd"/></svg>

<svg width="1024" height="1024" viewBox="0 0 1024 1024" fill="none" xmlns="http://www.w3.org/2000/svg">
<rect width="1024" height="1024" fill="#0052FF"/>
<path fill-rule="evenodd" clip-rule="evenodd" d="M152 512C152 710.823 313.177 872 512 872C710.823 872 872 710.823 872 512C872 313.177 710.823 152 512 152C313.177 152 152 313.177 152 512ZM420 396C406.745 396 396 406.745 396 420V604C396 617.255 406.745 628 420 628H604C617.255 628 628 617.255 628 604V420C628 406.745 617.255 396 604 396H420Z" fill="white"/>
</svg>
